src/categories-icons-sprite/categories/svg-cat-women-homewear.svg

<svg width="37" height="30" viewBox="0 0 37 30" fill="none" xmlns="http://www.w3.org/2000/svg">
<path class="p-EBEBEC" d="M18.5 0H12.409C11.4911 0 10.6123 0.371763 9.97303 1.03051L0 10.893L4.55721 15.3997L10.973 9.055V30H15.3316C17.0814 30 18.5 28.5971 18.5 26.8667C18.5 28.5971 19.9186 30 21.6684 30H26.027V7.52704C26.027 3.37 22.657 3.94473e-05 18.5 0Z" fill="#A1D1FD"/>
<path class="p-CACACD" d="M27.027 1.03051C26.3877 0.371763 25.5089 0 24.591 0H18.5V26.8667C18.5 28.5971 19.9186 30 21.6684 30H26.027V9.055L32.4428 15.3997L37 10.893L27.027 1.03051Z" fill="#65B3E7"/>
<path class="p-64DDE0" d="M1.4948 9.41469L6.05176 13.9211L7.58473 12.4052L3.02777 7.89871L1.4948 9.41469Z" fill="#B9DFFC"/>
<path class="p-A9A8AE" d="M18.4997 0H14.9688L18.4997 10.8292L22.0307 0H18.4997Z" fill="#58ADE5"/>
<path class="p-808081" d="M18.5 0V9.84025L22.031 0H18.5Z" fill="#4D98CB"/>
<path class="p-A9A8AE" d="M20.9898 0H24.1141C24.9216 0 25.3961 0.907668 24.9352 1.57074L18.5 10.8292L20.9898 0Z" fill="#A1D1FD"/>
<path class="p-00C2C7" d="M33.972 7.89809L29.415 12.4045L30.948 13.9205L35.505 9.41407L33.972 7.89809Z" fill="#A1D1FD"/>
<path class="p-00A5AD" d="M24.2686 13.5281H22.1006V20.8861H24.2686V13.5281Z" fill="#4D98CB"/>
<path class="p-64DDE0" d="M26.0263 12.8486H10.9727V14.9926H26.0263V12.8486Z" fill="#B9DFFC"/>
<path class="p-00C2C7" d="M26.0272 12.8486H18.5V14.9926H26.0272V12.8486Z" fill="#A1D1FD"/>
<path class="p-CACACD" d="M16.0099 0H12.8856C12.078 0 11.6035 0.907669 12.0644 1.57074L18.4996 10.8292L16.0099 0Z" fill="#B9DFFC"/>
<path class="p-64DDE0" d="M23.1846 12.8486H21.0166V20.2066H23.1846V12.8486Z" fill="#A1D1FD"/>
</svg>

<svg width="37" height="30" fill="none" xmlns="http://www.w3.org/2000/svg"><path class="p-EBEBEC" d="M18.5 0h-6.091c-.918 0-1.797.372-2.436 1.03L0 10.894 4.557 15.4l6.416-6.345V30h4.359c1.75 0 3.168-1.403 3.168-3.133 0 1.73 1.419 3.133 3.168 3.133h4.359V7.527A7.527 7.527 0 0018.5 0z" fill="#A1D1FD"/><path class="p-CACACD" d="M27.027 1.03A3.395 3.395 0 0024.591 0H18.5v26.867c0 1.73 1.419 3.133 3.168 3.133h4.359V9.055l6.416 6.345L37 10.893l-9.973-9.862z" fill="#65B3E7"/><path class="p-64DDE0" d="M1.495 9.415l4.557 4.506 1.533-1.516L3.028 7.9 1.495 9.415z" fill="#B9DFFC"/><path class="p-A9A8AE" d="M18.5 0h-3.531l3.53 10.83L22.032 0H18.5z" fill="#58ADE5"/><path class="p-808081" d="M18.5 0v9.84L22.031 0H18.5z" fill="#4D98CB"/><path class="p-A9A8AE" d="M20.99 0h3.124a1 1 0 01.821 1.57L18.5 10.83 20.99 0z" fill="#A1D1FD"/><path class="p-00C2C7" d="M33.972 7.898l-4.557 4.507 1.533 1.516 4.557-4.507-1.533-1.516z" fill="#A1D1FD"/><path class="p-00A5AD" d="M24.269 13.528H22.1v7.358h2.168v-7.358z" fill="#4D98CB"/><path class="p-64DDE0" d="M26.026 12.849H10.973v2.144h15.053v-2.144z" fill="#B9DFFC"/><path class="p-00C2C7" d="M26.027 12.849H18.5v2.144h7.527v-2.144z" fill="#A1D1FD"/><path class="p-CACACD" d="M16.01 0h-3.124a1 1 0 00-.822 1.57l6.436 9.26L16.01 0z" fill="#B9DFFC"/><path class="p-64DDE0" d="M23.185 12.849h-2.168v7.358h2.168v-7.358z" fill="#A1D1FD"/></svg>
